assets/svg/pencil.svg

<svg xmlns="http://www.w3.org/2000/svg" viewBox="0 0 24 24"><path d="m19.71 8.04-2.34 2.33-3.75-3.75 2.34-2.33c.39-.39 1.04-.39 1.41 0l2.34 2.34c.39.37.39 1.02 0 1.41M3 17.25 13.06 7.18l3.75 3.75L6.75 21H3v-3.75M16.62 5.04l-1.54 1.54 2.34 2.34 1.54-1.54-2.34-2.34M15.36 11 13 8.64l-9 9.02V20h2.34l9.02-9Z"/></svg>

<svg xmlns="http://www.w3.org/2000/svg" viewBox="0 0 24 24"><path d="M19.71,8.04L17.37,10.37L13.62,6.62L15.96,4.29C16.35,3.9 17,3.9 17.37,4.29L19.71,6.63C20.1,7 20.1,7.65 19.71,8.04M3,17.25L13.06,7.18L16.81,10.93L6.75,21H3V17.25M16.62,5.04L15.08,6.58L17.42,8.92L18.96,7.38L16.62,5.04M15.36,11L13,8.64L4,17.66V20H6.34L15.36,11Z" /></svg>
